X: 2114
T: The DUCHESS OF HAMILTON
C: J. BOWIE.
Q: "Strathspey."
R: Strathspey.
%R: strathspey
B: James Kerr "Merry Melodies" v.2 p.14 #114
Z: 2016 John Chambers <jc:trillian.mit.edu>
M: C
L: 1/16
K: G
uc2 |\
vBG3G3uA vF3vGuA3uc | vBG3G3uD B,3DG,3c |\
BG3G3A F3GA3c | vB3ud ABcA BG3 G2 ::\
ud2 |\
vg3ud BcdB gd3d3ue |
vg3vd (gab2) ae3e3f |\
[1 vg3ud BcdB vg3vdue3uB | ca3A3uc BG3G2 :|\
[2 gb3 dB3 ca3 cA3 | vB3ud ABcA BG3 G2 |]

%%sep 1 1 500
%%sep 1 1 500

